X:1
T:Laudate Dominum - Anon.
T:#
%%score [ 1 2 3 4 ]
L:1/8
Q:1/4=200
M:none
K:F
V:1 treble nm="Soprano" snm="S"
V:2 treble nm="Alto" snm="A"
V:3 treble-8 nm="Tenor" snm="T"
V:4 bass nm="Bass" snm="B"
V:1
"^Psalm 117 (Vulgate 116)""^Laudate Dominum""^Anonymous" z16 | z16 | z8 z4 c4 | B4 G4 A4 B4 | %4
w: ||Lau-|da- te e- um|
[M:4/2] c4 A4 (=B4 c4- | c4) =B4 c8 | z16 | z16 | A8 G8 | F8 E6 E2 | F4 (G8 A4 | B8) A4 c4 | %12
w: o- mnes po\- *|* pu- li.|||Mi- se-|ri- cor- di-|a e\- *|* ius: et|
 A4 c2 c2 d4 d2 c2 | B4 d4 c4 B4 | (A2 B2 c4 B2 A2 A2 GF | G8) F8 | z4 c4 A4 F4 | G6 A2 B8 | %18
w: ve- ri- tas Do- mi- ni|ma- net in ae-|ter\- * * * * * * *|* num.|Pa- tri et|Fi- li- o,|
 A4 d4 G4 c2 c2 | (B8 A6 =B2 | ^c4 d8 c4) | d4 A8 B4 | c8 B4 G4 | A4 B8 A4 | B4 B8 A4- | %25
w: et Spi- ri- tu- i|san\- * *||cto: Si- cut|e- rat in|prin- ci- pi-|o, et nunc,|
 A2 G2 G8 G4 | (^F4 G8 F4) | G8 G4 A4 | B6 B2 A4 F2 G2 | A8 A8 | z16 | z8 z4 c4- | %32
w: * et nunc, et|sem\- * *|per, et in|sae- cu- la sae- cu-|lo- rum,||sae\-|
 c4 c4 (A4 F2 G2 | A2 B2 c2 A2 B2) F2 B4- | (B4 A4 G4 A4 | G8)"^*" F4 A2 B2 | (c2 B2 A2 c2 B4 F4- | %37
w: * cu- lo\- * *|* * * * * rum, A\-||* men, sae- cu-|lo\- * * * * *|
 F2 G2 A2 F2 B4 G4) | A4 (B8 A4) | B8 G8- | G8 A8 |[Q:1/4=195] (A8[Q:1/4=188] B8- | %42
w: |rum, A\- *|men, A\-|* men,|A\- *|
[Q:1/4=182] B4[Q:1/4=178] A4[Q:1/4=173] G8) |[Q:1/4=170] A16 |] %44
w: |men.|
V:2
 z4 F4 E4 C4 | D4 E2 E2 F4 D4 | (E4 F8 E4) | F4 E4 C4 F4 |[M:4/2] G4 C4 z8 | z4 F6 F2 E4 | %6
w: Lau- da- te|Do- mi- num o- mnes|gen\- * *|tes: lau- da- te|e- um.|Quo- ni- am|
 D2 D2 G8 F4 | E4 A8 G4 | F4 (F2 E2) D4 E4 | C4 D4 B,4 (C4 | D8 E4 F4- | F4 E4) F8 | %12
w: con- fir- ma- ta|est su- per|nos mi\- * se- ri-|cor- di- a e\-||* * ius:|
 z4 F4 D4 F2 F2 | G4 G2 F2 E4 G4 | F4 _E4 (D2 =E2 F4- | F4 E4) F8 | z8 z4 F4 | E4 C4 D6 E2 | %18
w: et ve- ri- tas|Do- mi- ni ma- net|in ae- ter\- * *|* * num.|Pa-|tri et Fi- li-|
 F8 E4 (G2 F2) | D4 G4 E4 F4 | G4 A2 A2 A8 | A4 F8 F4- | F4 (F8 E4) | F4 F2 F2 G4 F4 | F4 F4 _E8 | %25
w: o, et Spi\- *|ri- tu- i, Spi-|ri- tu- i san-|cto: Si- cut|* e\- *|rat in prin- ci- pi-|o, et nunc,|
 D4 (D8 C4- | C4 B,4 A,8) | G,4 D8 F4 | F6 F2 F8- | F8 z4 C4- | C4 C4 D8- | D4 D4 C8 | C8 z4 F4- | %33
w: et sem\- *||per, et in|sae- cu- la|* sae\-|* cu- lo\-|* rum, A-|men, sae\-|
 F4 F4 (D4 B,2 C2) | (D2 E2 F2 D2 E2) C2 (F4- | F4 E4) F4 F4- | F4 F4 (D4 B,2 C2 | D2 E2 F8 _E4- | %38
w: * cu- lo\- * *|* * * * * rum, A\-|* * men, sae\-|* cu- lo\- * *||
 E4) D4 C8 | B,4 D8 D4 | C4 (C2 D2) (E2 D2 C2 E2 | F6 E2 D4 F4 | E4 F8 E4) | F16 |] %44
w: * rum, A-|men, sae- cu-|lo- rum, * A\- * * *|||men.|
V:3
 F8 G4 A4 | B4 G2 G2 A4 B4 | (c4 A4 G8) | F4 c4 A4 d4 |[M:4/2][K:treble-8] c4 f4 d4 c4 | %5
w: Lau- da- te|Do- mi- num o- mnes|gen\- * *|tes: lau- da- te|e- um o- mnes|
 d6 d2 G4 c4- | c2 c2 B4 A2 A2 d4- | d4 c4 B8 | A4 c4 B4 c4 | A4 B4 G4 A4 | A4 (B4 c8 | %11
w: po- pu- li. Quo\-|* ni- am con- fir- ma\-|* ta est|su- per nos mi-|se- ri- cor- di-|a e\- *|
 d4 c2 B2) c8- | c8 z8 | z16 | z16 | c8 A4 F4 | G8 F8 | z4 c4 B4 G4 | A6 B2 c4 (G2 A2) | %19
w: * * * ius:||||Glo- ri- a|Pa- tri,|Pa- tri et|Fi- li- o, et *|
 B4 d2 d2 ^c4 d4 | (e4 f4 e8) | d8 d4 d4 | (A8 B8) | c4 d2 d2 _e4 c4 | d4 d8 c4- | %25
w: * Spi- ri- tu- i|san\- * *|cto: Si- cut|e\- *|rat in prin- ci- pi-|o, et nunc,|
 c2 B2 (B8 A2 G2 | A4 B2 c2 d8) | d4 B8 c4 | d6 d2 c4 c4- | c4 c4 (A4 F2 G2 | %30
w: * et sem\- * *||per, et in|sae- cu- la sae\-|* cu- lo\- * *|
 A2 B2 c2 A2 B2) F2 (B4- | B4 A4 G4 A4 | G8) F4 (F4- | F2 G2 A2 F2 B4 d2 c2) | (B2 c2 d2 B2 c4 F4 | %35
w: * * * * * rum, A\-||* men, A\-|||
 C8) F8- | F8 z4 (d4- | d4 c4 B8) | c4 f8 f4 | (d4 B2 c2 d2 e2 f2 d2 | e4) e4 (c6 B2 | %41
w: * men,|* A\-||men, sae- cu-|lo\- * * * * * *|* rum, A\- *|
 A2 G2 F6 E2 D2 F2 | G4 A2 B2 c8) | c16 |] %44
w: ||men.|
V:4
 z16 | z16 | z8 C,8 | D,4 E,4 F,4 D,4 |[M:4/2] E,4 F,4 (G,4 E,4 | D,6) D,2 C,8 | z16 | z16 | %8
w: ||Lau-|da- te e- um|o- mnes po\- *|* pu- li.|||
 z4 F,8 E,4- | E,4 D,8 C,4- | C,4 B,,8 A,,4 | G,,8 F,,8- | F,,8 z8 | z16 | z16 | z8 F,8 | %16
w: Mi- se\-|* ri- cor\-|* di- a|e- ius:||||Glo-|
 E,4 C,4 D,8 | C,8 z4 G,4 | F,4 D,4 E,6 F,2 | G,4 G,8 F,4 | E,4 D,2 D,2 A,8 | D,4 D,8 B,,4 | %22
w: ri- a Pa-|tri, Pa-|tri et Fi- li-|o, et Spi-|ri- tu- i san-|cto: Si- cut|
 (F,8 G,8) | F,4 D,2 D,2 C,4 F,4 | B,,4 B,4 G,4 A,4 | (^F,4 G,4 _E,8 | D,16) | G,,4 G,8 F,4 | %28
w: e\- *|rat in prin- ci- pi-|o, et nunc, et|sem\- * *||per, et in|
 B,,6 B,,2 F,8- | F,8 z4 F,4- | F,4 F,4 (D,4 B,,2 C,2 | D,2 E,2 F,2 D,2 E,2) C,2 (F,4- | %32
w: sae- cu- la|* sae\-|* cu- lo\- * *|* * * * * rum, A\-|
 F,4 E,4) F,8 | z16 | z8 z4 C4- | C4 C4 (A,4 F,2 G,2 | A,2 B,2 C2) A,2 B,8- | B,4 A,4 G,8 | F,16 | %39
w: * * men,||sae\-|* cu- lo\- * *|* * * rum, A\-|* men, A-|men,|
"^* Source has G, not F" (B,,16 | C,16 | D,16 | C,16) | F,,16 |] %44
w: A\-||||men.|

